i/Double_girl_sign.svg

<?xml version="1.0" encoding="UTF-8" standalone="no"?>
<svg
   xmlns:dc="http://purl.org/dc/elements/1.1/"
   xmlns:cc="http://creativecommons.org/ns#"
   xmlns:rdf="http://www.w3.org/1999/02/22-rdf-syntax-ns#"
   xmlns:svg="http://www.w3.org/2000/svg"
   xmlns="http://www.w3.org/2000/svg"
   xmlns:sodipodi="http://sodipodi.sourceforge.net/DTD/sodipodi-0.dtd"
   xmlns:inkscape="http://www.inkscape.org/namespaces/inkscape"
   width="280"
   height="280"
   version="1.0"
   viewBox="-1 -1 206.96935 206.97461"
   id="svg2"
   inkscape:version="0.91 r13725"
   sodipodi:docname="Double_girl_sign.svg">
  <defs
     id="defs12" />
  <sodipodi:namedview
     pagecolor="#ffffff"
     bordercolor="#666666"
     borderopacity="1"
     objecttolerance="10"
     gridtolerance="10"
     guidetolerance="10"
     inkscape:pageopacity="0"
     inkscape:pageshadow="2"
     inkscape:window-width="1213"
     inkscape:window-height="778"
     id="namedview10"
     showgrid="false"
     inkscape:zoom="0.84285714"
     inkscape:cx="100"
     inkscape:cy="138.81356"
     inkscape:window-x="59"
     inkscape:window-y="-8"
     inkscape:window-maximized="1"
     inkscape:current-layer="svg2" />
  <metadata
     id="metadata4">
    <rdf:RDF>
      <cc:Work
         rdf:about="">
        <dc:format>image/svg+xml</dc:format>
        <dc:type
           rdf:resource="http://purl.org/dc/dcmitype/StillImage" />
        <dc:title></dc:title>
      </cc:Work>
    </rdf:RDF>
  </metadata>
  <g
     id="g3340"
     transform="translate(29.569623,-3.1250002e-7)">
    <path
       inkscape:connector-curvature="0"
       id="path6"
       d="m 36.472058,16.060618 c -6.23762,3.10954 -2.63198,8.220788 -15.15625,14.656248 -1.52611,0.78417 5.23864,2.85631 5.0625,4.09375 -3.06899,21.560336 -20.70004,13.008076 -18.21875,16.906246 4.66726,7.33237 17.07656,2.62805 17.4375,3.1875 0.78026,1.20936 -9.19097,2.85631 -8.15625,4.1875 1.81803,2.33891 9.68427,0.78562 10.125,1.9375 0.62035,1.62132 -13.31952,1.13444 -12,2.84375 5.2404,6.788398 14.28986,1.75414 13.65625,4.062498 -5.24381,19.10434 -14.63115,42.81496 -16.03125,43.09375 -2.74353,0.54627 -5.20889,0.86068 -7.21875,1.8125 -3.6279,1.71808 -5.77417996,4.33823 -5.43749996,5.71875 0.1626,0.66673 6.12448996,-0.5962 6.34374996,-0.0937 0.38736,0.88763 0.63182,1.76299 1.21875,2.0625 0.53574,0.27338 1.05303,-1.80214 2.34375,-1.78125 1.99386,0.0323 5.10738,1.26179 6.375,-0.75 13.33145,-21.157902 21.76357,-46.12747 23.03125,-46.09376 2.90607,0.07504 5.34989,11.83272 4.46875,14.37501 -3.86534,11.152368 -4.73925,18.37154 -3.53125,22.375 2.02931,3.02967 5.91674,11.79861 15.34375,10.46875 8.00054,-1.12864 33.1225,-10.84413 35.56251,-9.8125 12.219252,5.16624 26.744982,3.67855 36.412762,3.39672 2.37993,-0.0694 4.46547,1.28222 6.14974,1.25953 1.67594,-0.0226 1.47702,-1.7789 2.5625,-2.75 8.0518,-7.20334 9.33867,-6.25416 8.125,-10.6875 -0.38929,-1.422032 -7.19981,4.43649 -14.71875,5.96875 -7.4623,1.52071 -15.68958,-0.73781 -16.375,-1.90625 C 103.34309,86.68578 97.631548,74.74001 92.722068,72.8106 c -2.23341,-0.87772 -23.967892,8.49404 -33.90626,15.50001 -1.66429,1.17323 -5.17582,-6.1949 -3.28125,-11.53125 1.09802,-3.09272 7.41591,-8.14932 8,-11.124998 0.06242,-0.5604 0.11347,-0.9499 0.09031,-1.45466 -0.0016,-0.034 0.22321,-0.10912 0.22259,-0.24922 -5.7e-4,-0.12931 -0.26973,-0.26499 -0.27233,-0.30444 -0.56506,-8.55435 -12.62242,-9.27623 -14.60307,-17.77293 0.12489,-0.69144 5.31943,1.49155 5.34375,-0.03125 0.02127,-1.25728 3.32256,-6.147326 3.09375,-7.437496 -0.18049,-1.01774 -0.01475,-1.87211 -0.1875,-2.90625 -0.08703,-0.52103 -0.5112,-1.29188 -0.59375,-1.8125 -0.10808,-0.68164 1.04688,-1.19725 0.9375,-1.875 -0.26275,-1.62814 0.14112,-3.22478 -0.15625,-4.78125 -0.10136,-0.53054 -0.61468,-0.82603 -0.71875,-1.34375 -0.13589,-0.67605 0.61669,-1.16358 0.78125,-1.8125 0.36047,-1.421468 0.405,-2.941848 -0.03125,-4.187498 -5.82331,-9.02803 -13.15833,-7.385 -20.96875,-3.625 z m 53.28126,68.312492 c 0.0928,0.02122 0.15218,0.08583 0.1875,0.1875 2.74612,7.9045 11.292892,16.13168 10.125002,16.78125 C 87.009248,94.50524 76.690806,98.799278 76.690806,96.873108 80.815246,92.37698 88.361448,84.05484 89.753318,84.37311 Z"
       style="fill:#1a1a1a;fill-rule:evenodd;stroke:#000000;stroke-width:1px;stroke-linecap:butt" />
    <path
       inkscape:connector-curvature="0"
       id="path8"
       d="M 82.566458,131.97461 C 115.69678,126.01914 138.79914,95.755508 135.8096,62.227188 132.82005,28.698861 104.7278,3 71.066453,3 37.405108,3 9.312858,28.698861 6.32331,62.227188 3.333762,95.755508 26.436127,126.01914 59.566453,131.97461 l 0,22 -26,0 0,21 26,0 0,27 23.000005,0 0,-27 24.999992,0 0,-21 -24.999992,0 0,-22 z M 119.56645,67.974604 c 0,26.509667 -21.490332,48.000006 -47.999997,48.000006 -26.509668,0 -48,-21.490339 -48,-48.000006 0,-26.509668 21.490332,-48 48,-48 26.509665,0 47.999997,21.490332 47.999997,48 l 0,0 z"
       style="fill:#ffffff;stroke:#000000;stroke-width:6;stroke-linejoin:round" />
  </g>
</svg>

<?xml version="1.0" encoding="UTF-8" standalone="no"?>
<svg xmlns="http://www.w3.org/2000/svg"
   xmlns:dc="http://purl.org/dc/elements/1.1/"
   xmlns:cc="http://creativecommons.org/ns#"
   xmlns:rdf="http://www.w3.org/1999/02/22-rdf-syntax-ns#"
   width="200" height="280" version="1.0" viewBox="-1 -1 147.83525 206.97461">
  <metadata>
    <rdf:RDF>
      <cc:Work rdf:about="">
        <dc:format>image/svg+xml</dc:format>
        <dc:type rdf:resource="http://purl.org/dc/dcmitype/StillImage" />
      </cc:Work>
    </rdf:RDF>
  </metadata>
  <path style="fill:#1a1a1a;fill-rule:evenodd;stroke:#000000;stroke-width:1px;stroke-linecap:butt"
     d="M 36.472058,16.060618 C 30.234438,19.170158 33.840078,24.281406 21.315808,30.716866 C 19.789698,31.501036 26.554448,33.573176 26.378308,34.810616 C 23.309318,56.370952 5.678268,47.818692 8.159558,51.716862 C 12.826818,59.049232 25.236118,54.344912 25.597058,54.904362 C 26.377318,56.113722 16.406088,57.760672 17.440808,59.091862 C 19.258838,61.430772 27.125078,59.877482 27.565808,61.029362 C 28.186158,62.650682 14.246288,62.163802 15.565808,63.873112 C 20.806208,70.66151 29.855668,65.627252 29.222058,67.93561 C 23.978248,87.03995 14.590908,110.75057 13.190808,111.02936 C 10.447278,111.57563 7.981918,111.89004 5.972058,112.84186 C 2.344158,114.55994 0.19787804,117.18009 0.53455804,118.56061 C 0.69715804,119.22734 6.659048,117.96441 6.878308,118.46686 C 7.265668,119.35449 7.510128,120.22985 8.097058,120.52936 C 8.632798,120.80274 9.150088,118.72722 10.440808,118.74811 C 12.434668,118.78037 15.548188,120.0099 16.815808,117.99811 C 30.147258,96.840208 38.579378,71.87064 39.847058,71.90435 C 42.753128,71.97939 45.196948,83.73707 44.315808,86.27936 C 40.450468,97.431728 39.576558,104.6509 40.784558,108.65436 C 42.813868,111.68403 46.701298,120.45297 56.128308,119.12311 C 64.128848,117.99447 89.250808,108.27898 91.690818,109.31061 C 103.91007,114.47685 118.4358,112.98916 128.10358,112.70733 C 130.48351,112.63796 132.56905,113.98955 134.25332,113.96686 C 135.92926,113.94428 135.73034,112.18796 136.81582,111.21686 C 144.86762,104.01352 146.15449,104.9627 144.94082,100.52936 C 144.55153,99.107328 137.74101,104.96585 130.22207,106.49811 C 122.75977,108.01882 114.53249,105.7603 113.84707,104.59186 C 103.34309,86.68578 97.631548,74.74001 92.722068,72.8106 C 90.488658,71.93288 68.754176,81.30464 58.815808,88.31061 C 57.151518,89.48384 53.639988,82.11571 55.534558,76.77936 C 56.632578,73.68664 62.950468,68.63004 63.534558,65.654362 C 63.596978,65.093962 63.648028,64.704462 63.624868,64.199702 C 63.623308,64.165702 63.848078,64.090582 63.847458,63.950482 C 63.846888,63.821172 63.577728,63.685492 63.575128,63.646042 C 63.010068,55.091692 50.952708,54.369812 48.972058,45.873112 C 49.096948,45.181672 54.291488,47.364662 54.315808,45.841862 C 54.337078,44.584582 57.638368,39.694536 57.409558,38.404366 C 57.229068,37.386626 57.394808,36.532256 57.222058,35.498116 C 57.135028,34.977086 56.710858,34.206236 56.628308,33.685616 C 56.520228,33.003976 57.675188,32.488366 57.565808,31.810616 C 57.303058,30.182476 57.706928,28.585836 57.409558,27.029366 C 57.308198,26.498826 56.794878,26.203336 56.690808,25.685616 C 56.554918,25.009566 57.307498,24.522036 57.472058,23.873116 C 57.832528,22.451648 57.877058,20.931268 57.440808,19.685618 C 51.617498,10.657588 44.282478,12.300618 36.472058,16.060618 z M 89.753318,84.37311 C 89.846118,84.39433 89.905498,84.45894 89.940818,84.56061 C 92.686938,92.46511 101.23371,100.69229 100.06582,101.34186 C 87.009248,94.50524 76.690806,98.799278 76.690806,96.873108 C 80.815246,92.37698 88.361448,84.05484 89.753318,84.37311 z"/>
  <path style="fill:#ffffff;stroke:#000000;stroke-width:6;stroke-linejoin:round"
     d="M 82.566458,131.97461 C 115.69678,126.01914 138.79914,95.755508 135.8096,62.227188 C 132.82005,28.698861 104.7278,3 71.066453,3 C 37.405108,3 9.312858,28.698861 6.32331,62.227188 C 3.333762,95.755508 26.436127,126.01914 59.566453,131.97461 L 59.566453,153.97461 L 33.566453,153.97461 L 33.566453,174.97461 L 59.566453,174.97461 L 59.566453,201.97461 L 82.566458,201.97461 L 82.566458,174.97461 L 107.56645,174.97461 L 107.56645,153.97461 L 82.566458,153.97461 L 82.566458,131.97461 z M 119.56645,67.974604 C 119.56645,94.484271 98.076118,115.97461 71.566453,115.97461 C 45.056785,115.97461 23.566453,94.484271 23.566453,67.974604 C 23.566453,41.464936 45.056785,19.974604 71.566453,19.974604 C 98.076118,19.974604 119.56645,41.464936 119.56645,67.974604 L 119.56645,67.974604 z" />
</svg>
